!!!OTL: Li tian ge
!!!ARE: Asia, China,ÿAnhui, Fengyang
!! III, 560(2)
!!!SCT: C1599
!!!YEM: Copyright 1995, estate of Helmut Schaffrath.
**kern
*ICvox
*Ivox
*M2/4
*k[b-e-]
*B-:
{2ccc
=1
16ddd
8.ccc
16ddd
8.ccc
=2
2ccc
=3
8.bb-
16ccc
16fff
8.ccc
=4
2ccc}
=5
{4ff
16bb-
8.ccc
=6
4dd
4ff
=7
8bb-
8gg
8gg
8ff
=8
8gg
4.ff}
=9
{8.ff
16ff
8gg
8gg
=10
8bb-
8bb-
4gg
=11
8.ddd
16bb-
8ff
8ff
=12
8gg
8gg
8ff
8r}
=13
{16ff
8.dd
[4fff
=14
2fff]
=15
4bb-
4ccc
=16
4.ccc
16bb-
16gg
=17
4.ff
8dd
=18
4.ccc
16bb-
16gg
=19
2ff}
==
!!!AGN: Shange
!!!AMT: simple duple
!!!AIN: vox
!!!EED: Helmut Schaffrath
!!!EEV: 1.0
*-
!!!ONB: Tied note syntax fixed by Craig Sapp, 2004/05/03/
